X: 40847
T: Tranquility In Tureencahill
R: polka
M: 2/4
K: Amajor
|:a/f/|ec/e/ fa|e/f/e/c/ BA|FA dA|E2 Ef|
ec/e/ fa|e/f/e/c/ BA|BA/B/ c/e/c/B/|A2 A:|
|:B/c/|dF A/d/A/F/|Ec c>d|e/f/e/c/ Bc|e2 e>c|
dF A/d/A/F/|Ec c>e|df/d/ cB|A2 A:|

